X:1
T:Let Not Your Heart Be Troubled
T:Let Not Your Heart Be Troubled
T:George Stark Schuler
T:Mary Rowles Jarvis, 1909
T:Public Domain Courtesy of the Cyber Hymnal™
T:Public Domain Courtesy of the Cyber Hymnal™
C:George Stark Schuler
Z:Public Domain
Z:Courtesy of the Cyber Hymnal™
%%score ( 1 2 ) ( 3 4 )
L:1/8
Q:1/4=90
M:4/4
K:A
V:1 treble 
V:2 treble 
V:3 bass 
V:4 bass 
V:1
 [CE]2 | [Ec][Ec][DB][DG] [DB] [CA]2 [DF] | [CE][CE][DF][CE] [DG]3 E | %3
w: 1.~O|words of com- fort grant- ed For|ev- ery need and care, The|
w: 2.~When|dis- ap- point- ment scat- ters Your|hopes like au- tumn leaves; When|
w: 3.~When|past sins rise un- bid- den, To|spoil the pre- sent good, And|
w: 4.~When|health and strength are fail- ing, Be-|neath the load of years, And|
 [Ed][Ed][Ed][E^A] [Ec] [^DB]2 [DG] | [^DF][DF][EG][DA] [=DB]3 E | %5
w: ve- ry mes- sage want- ed To|chase a- way des- pair; This|
w: all is lost that mat- ters, And|all is left that grieves; When|
w: all the light is hid- den, By|some des- pond- ing mood, He|
w: toil seems un- a- vail- ing, And|life is thronged with fears, “Fear|
 [Ec][Ec][Ec][CA] [DB] [CA]2 [CE] | [CA][CA][FB][Fc] [Fd]3 [DB] | %7
w: sweet com- mand of Je- sus Was|meant to be o- beyed— “Let|
w: chas- tise- ment and sor- row On|dark- ened days are laid; “Let|
w: whis- pers in com- pas- sion, “My|love the debt hath paid; Let|
w: not!” He saith, “In weak- ness My|strength is per- fect made; Let|
 [Fd][Fd][Fc][FB] [EA]!fermata![CE] [CA]>[DB] | [Ec] [Ee]3 [^Dc]2 [=DB]2 | [CA]6 ||"^Refrain" E2 | %11
w: not your heart be trou- bled, Nei- ther|let it be a-|fraid.”||
w: not your heart be trou- bled, Nei- ther|let it be a-|fraid.”|O|
w: not your heart be trou- bled, Nei- ther|let it be a-|fraid.”||
w: not your heart be trou- bled, Nei- ther|let it be a-|fraid.”||
 A4- A>A A>F | [DG]2 [DE]4 E2 | (z2 d>)d [Fd]>[Ed] x2 | c6 [Ec]2 | [Ee]3 [EA] [EB]2 [Ec]2 | %16
w: |||||
w: soul, * re- deemed by|Je- sus, All|* Heav’n is pledged|to aid:|“Let not your heart|
w: |||||
w: |||||
 [Dd]2 [DF]4 [Fd]>[=Fd] | [Ec] [Ae]3 [Ec]2 [DB]2 | [CA]6 |] %19
w: |||
w: * be trou- bled,|Nei- ther let it|be|
w: |||
w: |||
V:2
 x2 | x8 | x7 E | x8 | x7 E | x8 | x8 | x8 | x8 | x6 || E2 | (C2 C2 C2) C2 | x8 | (d4- E>F G2) | %14
 (E2 E2 E2) x2 | x8 | x8 | x8 | x6 |] %19
V:3
 [A,,A,]2 | [A,,E,A,][A,,A,][E,G,][E,B,] [A,,A,] [A,,A,]2 [A,,A,] | %2
w: ~|~ ~ ~ ~ ~ ~ ~|
 [A,,A,][A,,A,][A,,A,][A,,A,] [E,B,]3 [E,G,] | [E,G,][F,A,][G,B,][F,C] [B,,B,] [B,,B,]2 [B,,B,] | %4
w: ~ ~ ~ ~ ~ ~|~ ~ ~ ~ ~ ~ ~|
 [B,,B,][B,,A,][B,,G,][B,,F,] E,3 [E,G,] | [A,,A,][A,,A,][A,,A,][A,,A,] [A,,F,] [A,,E,]2 [A,,A,] | %6
w: ~ ~ ~ ~ ~ ~|~ ~ ~ ~ ~ ~ ~|
 A,[E,=A,][D,A,][C,^A,] [B,,B,]3 [B,,F,] | %7
w: ~ ~ ~ ~ ~ ~|
 [B,,B,][B,,B,][C,^A,][D,B,] [E,C]!fermata![E,=A,] [E,A,]>[E,G,] | A, [A,C]3 [B,,A,]2 [E,G,]2 | %9
w: ~ ~ ~ ~ ~ ~ ~ ~|~ ~ ~ ~|
 [A,,A,]6 || E,2 | [A,,E,]2 [A,,E,]2 [A,,E,]2 [A,,A,]2 | [E,B,]2 [E,G,]4 z2 | %13
w: ~|O|soul, re- deemed by|Je- sus,|
 z2 (G,>A,) [E,B,]2 (A,>G,) | [A,,A,]2 [A,,A,]2 [A,,A,]2 A,2 | [A,C]3 [A,C] [G,B,]2 [=G,A,]2 | %16
w: All * Heav’n is *|pledged to aid: *||
 [F,A,]2 [D,A,]4 [D,A,]>[D,A,] | [E,A,] [E,C]3 [E,A,]2 [E,G,]2 | [A,,A,]6 |] %19
w: |||
V:4
 x2 | x8 | x8 | x8 | x4 E,3 x | x8 | ^A, x7 | x8 | A, x7 | x6 || E,2 | x8 | x8 | %13
 x2 E,2 x/ E,2 x3/2 | x6 A,2 | x8 | x8 | x8 | x6 |] %19

